dist/img/header/Vector.svg

<svg width="25" height="25" viewBox="0 0 25 25" fill="none" xmlns="http://www.w3.org/2000/svg">
<path d="M12.5 0C10.0277 0 7.61099 0.733112 5.55538 2.10663C3.49976 3.48015 1.89761 5.43238 0.951511 7.71646C0.00541617 10.0005 -0.242126 12.5139 0.24019 14.9386C0.722505 17.3634 1.91301 19.5907 3.66117 21.3388C5.40933 23.087 7.63661 24.2775 10.0614 24.7598C12.4861 25.2421 14.9995 24.9946 17.2835 24.0485C19.5676 23.1024 21.5199 21.5002 22.8934 19.4446C24.2669 17.389 25 14.9723 25 12.5C24.9963 9.18594 23.6781 6.0087 21.3347 3.66531C18.9913 1.32191 15.8141 0.00374956 12.5 0ZM12.5 23.3333C10.7792 23.3333 8.9775 21.115 8.08334 17.5H16.9167C16.0225 21.115 14.2208 23.3333 12.5 23.3333ZM7.745 15.8333C7.41834 13.6231 7.41834 11.3769 7.745 9.16667H17.255C17.4203 10.27 17.5022 11.3843 17.5 12.5C17.5022 13.6157 17.4203 14.73 17.255 15.8333H7.745ZM1.66667 12.5C1.66728 11.368 1.84613 10.2431 2.19667 9.16667H6.07167C5.75389 11.3775 5.75389 13.6225 6.07167 15.8333H2.19667C1.84613 14.7569 1.66728 13.632 1.66667 12.5ZM12.5 1.66667C14.2208 1.66667 16.0225 3.885 16.9167 7.5H8.08334C8.9775 3.885 10.7792 1.66667 12.5 1.66667ZM18.9283 9.16667H22.8033C23.5098 11.3327 23.5098 13.6673 22.8033 15.8333H18.9283C19.0864 14.7292 19.166 13.6153 19.1667 12.5C19.166 11.3847 19.0864 10.2708 18.9283 9.16667ZM22.1008 7.5H18.6283C18.2575 5.68751 17.5304 3.96673 16.4892 2.4375C18.9043 3.40067 20.8949 5.19647 22.1008 7.5ZM8.51084 2.4375C7.46964 3.96673 6.74252 5.68751 6.37167 7.5H2.89917C4.10511 5.19647 6.09572 3.40067 8.51084 2.4375ZM2.89917 17.5H6.37167C6.74252 19.3125 7.46964 21.0333 8.51084 22.5625C6.09572 21.5993 4.10511 19.8035 2.89917 17.5ZM16.4892 22.5625C17.5304 21.0333 18.2575 19.3125 18.6283 17.5H22.1008C20.8949 19.8035 18.9043 21.5993 16.4892 22.5625Z" fill="#F3F3F3"/>
</svg>

<svg width="25" height="25" fill="none" xmlns="http://www.w3.org/2000/svg"><path d="M12.5 0A12.5 12.5 0 1 0 25 12.5 12.514 12.514 0 0 0 12.5 0Zm0 23.333c-1.72 0-3.523-2.218-4.417-5.833h8.834c-.895 3.615-2.696 5.833-4.417 5.833Zm-4.755-7.5a22.798 22.798 0 0 1 0-6.666h9.51c.165 1.103.247 2.217.245 3.333.002 1.116-.08 2.23-.245 3.333h-9.51ZM1.667 12.5c0-1.132.18-2.257.53-3.333h3.875a23.429 23.429 0 0 0 0 6.666H2.197a10.783 10.783 0 0 1-.53-3.333ZM12.5 1.667c1.72 0 3.523 2.218 4.417 5.833H8.083c.894-3.615 2.696-5.833 4.417-5.833Zm6.428 7.5h3.875a10.75 10.75 0 0 1 0 6.666h-3.875a23.62 23.62 0 0 0 .239-3.333 23.52 23.52 0 0 0-.239-3.333ZM22.101 7.5h-3.473a13.97 13.97 0 0 0-2.139-5.063A10.886 10.886 0 0 1 22.101 7.5ZM8.51 2.437A13.972 13.972 0 0 0 6.37 7.5H2.9a10.886 10.886 0 0 1 5.612-5.063ZM2.899 17.5h3.473a13.971 13.971 0 0 0 2.139 5.063A10.886 10.886 0 0 1 2.899 17.5Zm13.59 5.063a13.97 13.97 0 0 0 2.14-5.063H22.1a10.886 10.886 0 0 1-5.612 5.063Z" fill="#F3F3F3"/></svg>
